svg/fluentui-system-icons/ic_fluent_hand_left_20_filled.svg

<svg width="20" height="20" viewBox="0 0 20 20" fill="none" xmlns="http://www.w3.org/2000/svg">
<path d="M11 8.5V6V2.75C11 2.33579 10.6642 2 10.25 2C9.83579 2 9.5 2.33579 9.5 2.75V8.5C9.5 8.77614 9.27614 9 9 9C8.72386 9 8.5 8.77614 8.5 8.5V3.75C8.5 3.33579 8.16421 3 7.75 3C7.33579 3 7 3.33579 7 3.75V10.2498C6.33836 9.82409 5.60805 9.5 5 9.5C4.02892 9.5 3.21255 9.82415 3.01591 10.6155C3.0041 10.6631 3 10.7122 3 10.7611C3 10.9115 3.0708 11.0531 3.1911 11.1433L4.50348 12.1276C5.56589 12.9244 6.56663 13.9933 7.26454 15.1163C7.64218 15.7239 7.98263 16.3529 8.31824 16.9844C8.67833 17.6615 8.90625 18 10 18H13.0455C14 18 14.3629 17.467 15 16C15.6371 14.533 16 13.0556 16 12.5V5.25C16 4.83579 15.6642 4.5 15.25 4.5C14.8358 4.5 14.5 4.83579 14.5 5.25V9C14.5 9.27614 14.2761 9.5 14 9.5C13.7239 9.5 13.5 9.27614 13.5 9V6V3.75C13.5 3.33579 13.1642 3 12.75 3C12.3358 3 12 3.33579 12 3.75V8.5C12 8.77614 11.7761 9 11.5 9C11.2239 9 11 8.77614 11 8.5Z" fill="#212121"/>
</svg>

<svg xmlns="http://www.w3.org/2000/svg" width="20" height="20"><path d="M11 8.5V2.75a.75.75 0 0 0-1.5 0V8.5a.5.5 0 0 1-1 0V3.75a.75.75 0 0 0-1.5 0v6.5c-.662-.426-1.392-.75-2-.75-.971 0-1.787.324-1.984 1.116A.604.604 0 0 0 3 10.76c0 .15.07.292.191.382l1.312.985c1.063.796 2.064 1.865 2.762 2.988a32.02 32.02 0 0 1 1.053 1.868C8.678 17.661 8.906 18 10 18h3.046c.954 0 1.317-.533 1.954-2s1-2.944 1-3.5V5.25a.75.75 0 0 0-1.5 0V9a.5.5 0 0 1-1 0V3.75a.75.75 0 0 0-1.5 0V8.5a.5.5 0 0 1-1 0Z"/></svg>
